actions/symbolic/document-properties-symbolic.svg

<?xml version="1.0" encoding="UTF-8" standalone="no"?>
<svg
   id="svg8"
   version="1.1"
   width="16"
   height="16"
   xmlns="http://www.w3.org/2000/svg"
   xmlns:svg="http://www.w3.org/2000/svg"
   xmlns:rdf="http://www.w3.org/1999/02/22-rdf-syntax-ns#"
   xmlns:cc="http://creativecommons.org/ns#"
   xmlns:dc="http://purl.org/dc/elements/1.1/">
  <metadata
     id="metadata14">
    <rdf:RDF>
      <cc:Work
         rdf:about="">
        <dc:format>image/svg+xml</dc:format>
        <dc:type
           rdf:resource="http://purl.org/dc/dcmitype/StillImage" />
      </cc:Work>
    </rdf:RDF>
  </metadata>
  <defs
     id="defs12" />
  <path
     style="opacity:1;vector-effect:none;fill:#555761;fill-opacity:1;stroke-width:1;stroke-linecap:butt;stroke-linejoin:miter;stroke-miterlimit:4;stroke-dasharray:none;stroke-dashoffset:0;stroke-opacity:1;marker:none"
     d="m 3.7730245,1.5539142 2.9511072,2.9511072 c 0.4170497,0.4170497 0.4170496,1.088853 0,1.5059028 l -0.713931,0.713931 c -0.4170497,0.4170497 -1.088853,0.4170497 -1.5059029,0 L 1.5546359,3.7751932 a 4.1857588,4.7089787 45 0 0 0.56652,5.0061877 4.1857588,4.7089787 45 0 0 5.0090781,0.5665201 c 0.00301,0.00309 0.00416,0.00705 0.00723,0.010119 l 5.329914,5.329915 c 0.41705,0.417048 1.088853,0.417048 1.505903,-10e-7 l 0.713932,-0.713931 c 0.417049,-0.417051 0.417049,-1.088852 0,-1.505903 L 9.357294,7.1381837 c -0.00306,-0.00306 -0.00703,-0.00421 -0.010119,-0.00723 A 4.1857588,4.7089787 45 0 0 8.7806573,2.1218795 4.1857588,4.7089787 45 0 0 3.7730245,1.5539142 Z"
     id="path3713" />
</svg>

<svg
        xmlns='http://www.w3.org/2000/svg'
        xmlns:svg='http://www.w3.org/2000/svg'
        id='svg8'
        width='16'
        height='16'>
  <path
          id='path3713'
          opacity='1'
          fill='url(#gpa:foreground) #555761'
          fill-opacity='1'
          fill-rule='nonzero'
          stroke-opacity='1'
          stroke-width='1'
          stroke-linecap='butt'
          stroke-linejoin='miter'
          stroke-miterlimit='4'
          stroke-dasharray='none'
          stroke-dashoffset='0'
          marker-start='none'
          marker-mid='none'
          marker-end='none'
          d='M 3.77302 1.55391 L 6.72413 4.50502 C 7.14118 4.92207, 7.14118 5.59387, 6.72413 6.01092 L 6.0102 6.72486 C 5.59315 7.1419, 4.92135 7.1419, 4.5043 6.72486 L 1.55464 3.77519 A 4.18576 4.70898 45 0 0 2.12116 8.78138 A 4.18576 4.70898 45 0 0 7.13023 9.3479 C 7.13324 9.35099, 7.13439 9.35495, 7.13746 9.35802 L 12.4674 14.6879 C 12.8844 15.105, 13.5562 15.105, 13.9733 14.6879 L 14.6872 13.974 C 15.1043 13.557, 15.1043 12.8852, 14.6872 12.4681 L 9.35729 7.13818 C 9.35423 7.13512, 9.35026 7.13397, 9.34717 7.13095 A 4.18576 4.70898 45 0 0 8.78066 2.12188 A 4.18576 4.70898 45 0 0 3.77302 1.55391 Z'
          class="foreground">
  </path>
</svg>
